X: 27971
T: Mouse In The Mug, The
R: jig
M: 6/8
K: Gmajor
|:~G3 EGD|~G3 Bdg|fge dBG|A3 BAB|
~G3 EGD|~G3 Bdg|e3 dBG|1 AGF GBA:|2 AGF GBd||
gab agf|fgd edB|deg edB|BAG ABd|
gab agf|e/f/ge edB|deg edB|AGF G3|
gab agf|e3 edB|deg edB|AGA BAB|
~G3 EGD|~G3 Bdg|~e3 dBG|AGF GBA||

